packs/brands/space-awesome.svg

<svg xmlns="http://www.w3.org/2000/svg" viewBox="0 0 512 512"><!--! Font Awesome Free 6.5.2 by @fontawesome - https://fontawesome.com License - https://fontawesome.com/license/free (Icons: CC BY 4.0, Fonts: SIL OFL 1.1, Code: MIT License) Copyright 2024 Fonticons, Inc.--><path d="M96 256h32v256H0V352h32v-32h32v-32h32zm416 96v160H384V256h32v32h32v32h32v32zM320 64h32v384h-32v-32H192v32h-32V64h32V32h32V0h64v32h32zm-32 64h-64v64h64z"/></svg>

<svg xmlns="http://www.w3.org/2000/svg" viewBox="0 0 512 512"><!--! Font Awesome Free 6.5.2 by @fontawesome - https://fontawesome.com License - https://fontawesome.com/license/free (Icons: CC BY 4.0, Fonts: SIL OFL 1.1, Code: MIT License) Copyright 2024 Fonticons, Inc. --><path d="M96 256H128V512H0V352H32V320H64V288H96V256zM512 352V512H384V256H416V288H448V320H480V352H512zM320 64H352V448H320V416H192V448H160V64H192V32H224V0H288V32H320V64zM288 128H224V192H288V128z"/></svg>
